X:1
T:The Drunkard
M:2/4
L:1/8
K:C
 C| EG GG| AA GE| G G/2G/2 G/2G/2 B,| C3 G| A c/2c/2 cA| G3/2 G/2 G E/2E/2|\
 D/2 D3/2 E3/2 ^F/2| G3 G| A c/2c/2 c c/2c/2| c G/2G/2 G E/2E/2| F F/2F/2 EF|\
 G3 G/2G/2| C/2C/2 E/2E/2 G/2G/2 G/2G/2| A/2A/2 A/2B/2 c/2 c E/2| G3/2 G/2 GB,|\
 C4| A A/2A/2 cA| G G/2G/2 GE| F3/2 F/2 ED| E3 G/2G/2| A A/2A/2 cA|\
 G G/2G/2 EE| G/2 G3/2 G/2 G3/2| C3|| A A/2A/2 cA| G G/2G/2 GE| F3/2 F/2 ED|\
 E3 G/2G/2| A A/2A/2 cA| G G/2G/2 EE| G/2 G3/2 A/2 B3/2| c4-| c4|
